packages/website/src/html/img/design-icon.svg

<svg width="100" height="100" viewBox="0 0 100 100" xmlns="http://www.w3.org/2000/svg"><title>Group</title><g fill="none" fill-rule="evenodd"><path d="M97.496.063a3.124 3.124 0 0 1 2.441 3.677 3.143 3.143 0 0 1-.917 1.65l.015.005-61.829 71.391-.049.01a5.607 5.607 0 0 1-.146.22l-.107.122a1.546 1.546 0 0 1-1.123.479c-.244 0-.479-.054-.684-.156-.049-.024-.088-.049-.137-.073a1.21 1.21 0 0 1-.342-.288l-.146.02a31.294 31.294 0 0 1-11.499-11.456v-.239a1.392 1.392 0 0 1-.352-.391c-.039-.068-.083-.137-.117-.2a1.57 1.57 0 0 1 .317-1.744L94.87.722v.005a3.13 3.13 0 0 1 2.626-.664z" fill="#44C7F4"/><path d="M31.605 82.67a37.373 37.373 0 0 1-21.264 15.875A37.583 37.583 0 0 1 0 100c0-2.441.244-4.917.747-7.408 2.09-10.396 8.301-18.912 16.586-24.195A37.552 37.552 0 0 0 31.605 82.67z" fill="#16214D"/></g></svg>

<?xml version="1.0" encoding="UTF-8" standalone="no"?>
<svg width="100px" height="100px" viewBox="0 0 100 100" version="1.1" xmlns="http://www.w3.org/2000/svg" xmlns:xlink="http://www.w3.org/1999/xlink">
    <!-- Generator: Sketch 3.6.1 (26313) - http://www.bohemiancoding.com/sketch -->
    <title>Group</title>
    <desc>Created with Sketch.</desc>
    <defs></defs>
    <g id="Page-1" stroke="none" stroke-width="1" fill="none" fill-rule="evenodd">
        <g id="noun_24577_cc">
            <g id="Group">
                <path d="M97.496,0.063 C99.181,0.405 100.279,2.05 99.937,3.74 C99.801,4.394 99.474,4.96 99.02,5.39 L99.035,5.395 L37.206,76.786 L37.157,76.796 C37.108,76.874 37.059,76.947 37.011,77.016 L36.904,77.138 C36.62,77.436 36.22,77.617 35.781,77.617 C35.537,77.617 35.302,77.563 35.097,77.461 C35.048,77.437 35.009,77.412 34.96,77.388 C34.828,77.315 34.716,77.217 34.618,77.1 L34.472,77.12 C29.653,74.356 25.702,70.376 22.973,65.664 L22.973,65.425 C22.831,65.313 22.709,65.186 22.621,65.034 C22.582,64.966 22.538,64.897 22.504,64.834 C22.416,64.639 22.367,64.419 22.367,64.189 C22.367,63.764 22.538,63.374 22.821,63.09 L94.87,0.722 L94.87,0.727 C95.578,0.141 96.529,-0.133 97.496,0.063 L97.496,0.063 L97.496,0.063 Z" id="Shape" fill="#44C7F4"></path>
                <path d="M31.605,82.67 C26.859,90.112 19.486,95.918 10.341,98.545 C6.89,99.531 3.418,100 0,100 C0,97.559 0.244,95.083 0.747,92.592 C2.837,82.196 9.048,73.68 17.333,68.397 C20.658,74.291 25.565,79.271 31.605,82.67 L31.605,82.67 Z" id="Shape" fill="#16214D"></path>
            </g>
        </g>
    </g>
</svg>
